X:1
T:Title
%%score 1 { 2 | 3 }
L:1/8
Q:1/4=105
M:4/4
K:Eb
V:1 treble nm="Grand Piano, Soprano"
V:2 bass nm="Choir Pad, Darak, James M. Dungan"
V:3 bass 
V:1
 [EG]4 [EA]2 [EG]2 | [EG]2 [DF]2 [DF]4 | [DA]4 [DB]2 [DA]2 | [EA]2 [EG]2 [EG]4 | %4
w: By~James~M.~Dungan,~1898 * *||||
 [EB]4 [Ec]2 [EB]2 | [CB]2 [CA]2 [CE]2 [CF]2 | [DG]2 E2 [EG]3 [DF] | E8 |] %8
w: ||||
V:2
 B,4 C2 B,2 | B,2 A,2 A,4 | B,4 B,2 C2 | C2 B,2 B,4 | G,4 A,2 G,2 | A,2 A,2 A,2 A,2 | %6
 A,2 G,2 B,3 A, | G,8 |] %8
V:3
 E,4 E,2 E,2 | B,,2 B,,2 B,,4 | B,,4 B,,2 B,,2 | E,2 E,2 E,4 | E,4 E,2 E,2 | A,,2 A,,2 A,,2 A,,2 | %6
 B,,2 B,,2 B,,3 B,, | E,8 |] %8

